app/images/logo-green.svg

<svg width="193" height="64" viewBox="0 0 193 64" fill="none" xmlns="http://www.w3.org/2000/svg">
<path d="M84.8213 18.1652L86.5185 12.062C86.6134 11.7347 86.6978 11.3994 86.7644 11.059C86.8332 10.7212 86.8947 10.3964 86.9538 10.0868H87.7392C87.7957 10.3964 87.8648 10.7212 87.9412 11.059C88.0184 11.3994 88.0977 11.7347 88.1744 12.062L89.8717 18.1652H84.8213ZM90.4263 7.06433C90.1446 6.8526 89.8198 6.74504 89.4537 6.74504H85.2393C84.8706 6.74504 84.5459 6.8526 84.2671 7.06433C83.9853 7.27944 83.7959 7.55823 83.6989 7.9062L77.8594 26.7939H82.4218L83.8929 21.5044H90.8004L92.2712 26.7939H96.8028L90.9915 7.9062C90.8945 7.55823 90.7076 7.27944 90.4263 7.06433Z" fill="#0C4E4E"/>
<path d="M102.816 16.9728C102.816 16.5067 102.924 16.1744 103.137 15.9698C103.349 15.7673 103.697 15.6649 104.183 15.6649H109.848L110.023 12.6736C108.899 12.4791 107.651 12.367 106.274 12.3383C104.9 12.3104 103.561 12.2952 102.264 12.2952C101.026 12.2952 100.099 12.5812 99.4903 13.1523C98.8813 13.723 98.5742 14.6007 98.5742 15.7825V26.7939H102.816V16.9728Z" fill="#0C4E4E"/>
<path d="M118.215 15.7396C118.737 15.4963 119.321 15.3756 119.958 15.3756C120.521 15.3756 120.971 15.4963 121.309 15.7396C121.649 15.98 121.895 16.4174 122.051 17.0471C122.204 17.6764 122.284 18.5824 122.284 19.7621C122.284 20.9651 122.199 21.8778 122.036 22.5079C121.872 23.1372 121.606 23.5594 121.237 23.772C120.868 23.9867 120.375 24.0917 119.756 24.0917C119.078 24.0917 118.476 24.02 117.954 23.8741C117.533 23.7572 117.036 23.613 116.529 23.4645V16.7156C117.152 16.2998 117.717 15.9687 118.215 15.7396ZM116.529 28.8561C116.549 28.237 116.544 27.6127 116.516 26.983C116.494 26.5279 116.457 26.099 116.422 25.6687C117.007 26.1306 117.642 26.5098 118.374 26.735C119.315 27.0269 120.288 27.1724 121.296 27.1724C122.496 27.1724 123.499 26.9526 124.303 26.5178C125.106 26.0825 125.713 25.3225 126.12 24.2372C126.524 23.1524 126.729 21.6505 126.729 19.7335C126.729 17.2745 126.339 15.3862 125.567 14.0685C124.791 12.7505 123.494 12.0929 121.672 12.0929C120.897 12.0929 120.142 12.2081 119.407 12.4413C118.671 12.6737 117.998 12.9938 117.386 13.4004C116.861 13.7492 116.435 14.152 116.075 14.5899L115.718 12.4413H112.258V32.3135H116.529V28.8561Z" fill="#0C4E4E"/>
<path d="M134.601 20.3428C134.407 20.6343 134.22 20.9388 134.036 21.2589C133.852 21.5786 133.683 21.9215 133.527 22.2902H133.44C133.499 21.9038 133.537 21.5402 133.555 21.1999C133.576 20.862 133.586 20.5166 133.586 20.1686V12.4412H129.75V26.7939H133.499L138.931 19.1222C139.126 18.8333 139.328 18.4899 139.543 18.0909C139.755 17.6945 139.919 17.3208 140.037 16.9728H140.152C140.093 17.4 140.049 17.7965 140.021 18.1652C139.993 18.5338 139.978 18.9096 139.978 19.2985V26.8218L143.842 26.7939V12.4412H140.124L134.601 20.3428Z" fill="#0C4E4E"/>
<path d="M146.191 12.4412V15.7522H150.987V26.7939H155.285V15.7522H160.053V12.4412H146.191Z" fill="#0C4E4E"/>
<path d="M166.189 18.4855C166.221 17.7292 166.286 17.0759 166.417 16.6246C166.591 16.0235 166.898 15.6165 167.333 15.4044C167.768 15.1918 168.385 15.0842 169.178 15.0842C170.089 15.0842 170.734 15.215 171.11 15.4761C171.489 15.7397 171.678 16.2074 171.678 16.8857C171.696 17.3901 171.609 17.7815 171.414 18.0628C171.223 18.3446 170.805 18.4855 170.166 18.4855H166.189ZM174.874 19.9233C175.55 19.2734 175.88 18.2906 175.862 16.973C175.841 15.3453 175.309 14.1222 174.263 13.2984C173.216 12.4743 171.473 12.0622 169.032 12.0622C167.289 12.0622 165.874 12.3051 164.79 12.7893C163.704 13.2727 162.911 14.0686 162.407 15.1711C161.903 16.2766 161.652 17.7684 161.652 19.6471C161.652 21.3713 161.9 22.7843 162.394 23.8893C162.888 24.9923 163.692 25.8114 164.805 26.3432C165.918 26.8755 167.376 27.1421 169.178 27.1421C169.894 27.1421 170.632 27.1088 171.386 27.0421C172.141 26.973 172.878 26.8603 173.595 26.7068C174.311 26.5508 174.941 26.3386 175.483 26.067L175.104 23.4241C174.116 23.5388 173.134 23.6232 172.156 23.6696C171.179 23.7181 170.35 23.7434 169.672 23.7434C168.781 23.7434 168.077 23.6185 167.566 23.365C167.052 23.1141 166.688 22.6641 166.476 22.0141C166.375 21.7066 166.302 21.3274 166.249 20.8959H171.358C173.024 20.8959 174.193 20.5708 174.874 19.9233Z" fill="#0C4E4E"/>
<path d="M191.724 23.6846C191.432 22.8528 191.153 22.175 190.882 21.6503C190.608 21.1282 190.309 20.7165 189.981 20.417C189.651 20.1151 189.257 19.8924 188.804 19.7464C188.349 19.603 187.791 19.4828 187.133 19.3854V19.2681C187.773 19.1909 188.311 19.0762 188.745 18.9202C189.18 18.7641 189.544 18.541 189.835 18.2521C190.125 17.9606 190.391 17.5692 190.634 17.0753C190.877 16.5814 191.123 15.9571 191.376 15.1992C191.627 14.4446 191.926 13.526 192.277 12.4412H187.916C187.589 13.564 187.302 14.4801 187.059 15.1866C186.819 15.8926 186.565 16.4456 186.304 16.842C186.043 17.2389 185.728 17.5152 185.36 17.6713C184.992 17.8248 184.518 17.9016 183.938 17.9016H182.8C182.813 17.845 182.836 17.8007 182.847 17.743C182.954 17.19 183.006 16.6527 183.006 16.1309V12.4412H178.707V26.7939H183.006V22.0877C183.006 21.7195 182.944 21.2931 182.848 20.8367H183.996C184.459 20.8367 184.851 20.8726 185.17 20.9388C185.491 21.008 185.772 21.1463 186.015 21.361C186.256 21.5736 186.483 21.9038 186.698 22.3488C186.911 22.7938 187.138 23.375 187.379 24.0916C187.622 24.8082 187.916 25.7091 188.267 26.7939H192.74C192.353 25.5552 192.013 24.5189 191.724 23.6846Z" fill="#0C4E4E"/>
<path d="M90.4357 52.7513C90.2695 53.1782 89.9701 53.4675 89.5352 53.6235C89.0974 53.7797 88.4833 53.8568 87.6903 53.8568C86.5237 53.8568 85.5038 53.8501 84.5502 53.8409V47.9587H87.6903C88.504 47.9587 89.1282 48.0503 89.5635 48.2349C89.9983 48.4188 90.2948 48.7183 90.4488 49.1359C90.6048 49.5525 90.6812 50.1465 90.6812 50.9217C90.6812 51.715 90.5998 52.3265 90.4357 52.7513ZM92.1068 45.604C91.022 45.2357 89.5479 45.0513 87.6903 45.0513H84.5502V40.1718H93.5295L93.8774 36.8578C92.7542 36.7815 91.6205 36.7275 90.4792 36.6992C89.3357 36.6685 88.1636 36.6558 86.9636 36.6558C85.8784 36.6558 84.7552 36.6685 83.5932 36.6992C82.4316 36.7275 81.2675 36.7815 80.1055 36.8578V56.9067H80.2231C81.0549 56.9658 81.8685 57.0143 82.6619 57.0526C83.4578 57.091 84.279 57.1143 85.1339 57.1243C85.9859 57.1345 86.9046 57.1396 87.8924 57.1396C89.113 57.1396 90.1776 57.0581 91.0882 56.8915C91.9992 56.7279 92.7542 56.4335 93.3557 56.0062C93.9542 55.5815 94.4021 54.9699 94.6911 54.1766C94.9829 53.3807 95.1289 52.3544 95.1289 51.0955C95.1289 49.5476 94.896 48.3345 94.4304 47.4647C93.9647 46.5917 93.1891 45.9725 92.1068 45.604Z" fill="#0C4E4E"/>
<path d="M102.824 50.4556C102.63 50.7476 102.443 51.0521 102.259 51.3719C102.075 51.692 101.906 52.0348 101.75 52.4034H101.663C101.721 52.017 101.76 51.6536 101.778 51.3132C101.798 50.9753 101.809 50.63 101.809 50.282V42.554H97.9727V56.9067H101.721L107.154 49.2354C107.348 48.9461 107.55 48.6033 107.766 48.2042C107.978 47.8073 108.142 47.4336 108.259 47.0856H108.375C108.316 47.5134 108.272 47.9098 108.244 48.278C108.216 48.6466 108.2 49.0229 108.2 49.4122V56.9351L112.065 56.9067V42.554H108.347L102.824 50.4556Z" fill="#0C4E4E"/>
<path d="M125.124 52.4622C124.958 53.1021 124.664 53.5424 124.236 53.7824C123.812 54.0258 123.231 54.146 122.494 54.146C121.757 54.146 121.176 54.0258 120.751 53.7824C120.324 53.5424 120.025 53.1021 119.85 52.4622C119.677 51.8228 119.589 50.9219 119.589 49.7599C119.589 48.5777 119.677 47.6671 119.85 47.0272C120.025 46.3902 120.324 45.9449 120.751 45.6918C121.176 45.4409 121.757 45.3127 122.494 45.3127C123.231 45.3127 123.812 45.4409 124.236 45.6918C124.664 45.9449 124.958 46.3902 125.124 47.0272C125.288 47.6671 125.37 48.5777 125.37 49.7599C125.37 50.9219 125.288 51.8228 125.124 52.4622ZM126.824 42.9173C125.738 42.4235 124.296 42.1759 122.494 42.1759C120.692 42.1759 119.249 42.4235 118.164 42.9173C117.079 43.4112 116.296 44.2102 115.81 45.3127C115.326 46.4181 115.086 47.8999 115.086 49.7599C115.086 51.5795 115.326 53.043 115.81 54.146C116.296 55.2514 117.079 56.0444 118.164 56.5286C119.249 57.0145 120.692 57.2554 122.494 57.2554C124.296 57.2554 125.738 57.0145 126.824 56.5286C127.908 56.0444 128.686 55.2514 129.162 54.146C129.636 53.043 129.874 51.5795 129.874 49.7599C129.874 47.8999 129.636 46.4181 129.162 45.3127C128.686 44.2102 127.908 43.4112 126.824 42.9173Z" fill="#0C4E4E"/>
<mask id="mask0_2008_887" style="mask-type:luminance" maskUnits="userSpaceOnUse" x="0" y="23" width="44" height="27">
<path d="M43.5567 49.7874C37.3894 34.6796 5.20468 31.9797 2.33312 23.8706H2.33295C0.849635 26.4173 0 29.3791 0 32.539C0 42.0653 7.72237 49.7874 17.2485 49.7874H43.5567Z" fill="white"/>
</mask>
<g mask="url(#mask0_2008_887)">
<path d="M43.5567 49.7874C37.3894 34.6796 5.20468 31.9797 2.33312 23.8706H2.33295C0.849635 26.4173 0 29.3791 0 32.539C0 42.0653 7.72237 49.7874 17.2485 49.7874H43.5567Z" fill="url(#paint0_linear_2008_887)"/>
</g>
<path d="M2.33203 23.8705H2.3322C3.37395 26.8124 8.2742 29.0423 14.3897 31.4106L21.1367 15.2902H17.2476C10.8813 15.2902 5.32077 18.7391 2.33203 23.8705Z" fill="#0C4E4E"/>
<mask id="mask1_2008_887" style="mask-type:luminance" maskUnits="userSpaceOnUse" x="14" y="0" width="44" height="32">
<path d="M14.3906 31.4108C30.5583 33.6234 48.9888 7.10104 57.4472 8.66838C55.9832 6.11028 53.8435 3.89382 51.1066 2.31384C42.857 -2.44933 32.3074 0.377443 27.5446 8.62704L14.3906 31.4108Z" fill="white"/>
</mask>
<g mask="url(#mask1_2008_887)">
<path d="M14.3906 31.4108C30.5583 33.6234 48.9888 7.10104 57.4472 8.66838C55.9832 6.11028 53.8435 3.89382 51.1066 2.31384C42.857 -2.44933 32.3074 0.377443 27.5446 8.62704L14.3906 31.4108Z" fill="url(#paint1_linear_2008_887)"/>
</g>
<path d="M57.4452 8.66837C54.3768 8.09981 49.9953 11.2286 44.8867 15.3401L55.4738 29.2437L57.4182 25.8757C60.601 20.3626 60.3947 13.8225 57.4452 8.66837Z" fill="#0C4E4E"/>
<mask id="mask2_2008_887" style="mask-type:luminance" maskUnits="userSpaceOnUse" x="41" y="15" width="20" height="49">
<path d="M44.8888 15.3402H44.8884C34.8884 28.2357 48.6422 57.4582 43.0553 63.9996C46.0032 64.0112 48.9927 63.2658 51.7292 61.6858C59.9788 56.9231 62.8056 46.374 58.0429 38.1239L44.8888 15.3402Z" fill="white"/>
</mask>
<g mask="url(#mask2_2008_887)">
<path d="M44.8888 15.3402H44.8884C34.8884 28.2357 48.6422 57.4582 43.0553 63.9996C46.0032 64.0112 48.9927 63.2658 51.7292 61.6858C59.9788 56.9231 62.8056 46.374 58.0429 38.1239L44.8888 15.3402Z" fill="url(#paint2_linear_2008_887)"/>
</g>
<path d="M43.0555 64V63.9995C45.0826 61.6266 44.5633 56.2679 43.557 49.7873L26.2227 52.0047L28.1675 55.3729C31.3502 60.8861 37.1177 63.9773 43.0555 64Z" fill="#0C4E4E"/>
<defs>
<linearGradient id="paint0_linear_2008_887" x1="41.9067" y1="52.6238" x2="3.40773" y2="34.7521" gradientUnits="userSpaceOnUse">
<stop stop-color="#0C4E4E"/>
<stop offset="1" stop-color="#99D420"/>
</linearGradient>
<linearGradient id="paint1_linear_2008_887" x1="12.7593" y1="28.5633" x2="47.4862" y2="4.15815" gradientUnits="userSpaceOnUse">
<stop stop-color="#0C4E4E"/>
<stop offset="1" stop-color="#99D420"/>
</linearGradient>
<linearGradient id="paint2_linear_2008_887" x1="48.1698" y1="15.3516" x2="51.9419" y2="57.6283" gradientUnits="userSpaceOnUse">
<stop stop-color="#0C4E4E"/>
<stop offset="1" stop-color="#99D420"/>
</linearGradient>
</defs>
</svg>

<?xml version="1.0"?>
<svg width="193" height="64" xmlns="http://www.w3.org/2000/svg" xmlns:svg="http://www.w3.org/2000/svg">
 <mask height="27" id="mask0_2008_887" maskUnits="userSpaceOnUse" width="44" x="0" y="23">
  <path d="m43.56,49.79c-6.17,-15.11 -38.36,-17.81 -41.23,-25.92l0,0c-1.48,2.55 -2.33,5.51 -2.33,8.67c0,9.53 7.72,17.25 17.25,17.25l26.31,0z" fill="white" id="svg_1"/>
 </mask>
 <mask height="32" id="mask1_2008_887" maskUnits="userSpaceOnUse" width="44" x="14" y="0">
  <path d="m14.39,31.41c16.17,2.21 34.6,-24.31 43.06,-22.74c-1.47,-2.56 -3.61,-4.78 -6.34,-6.36c-8.25,-4.76 -18.8,-1.93 -23.57,6.32l-13.15,22.78z" fill="white" id="svg_2"/>
 </mask>
 <mask height="49" id="mask2_2008_887" maskUnits="userSpaceOnUse" width="20" x="41" y="15">
  <path d="m44.89,15.34l0,0c-10,12.9 3.75,42.12 -1.83,48.66c2.94,0.01 5.93,-0.73 8.67,-2.31c8.25,-4.77 11.08,-15.32 6.31,-23.57l-13.15,-22.78z" fill="white" id="svg_3"/>
 </mask>
 <defs>
  <linearGradient id="paint0_linear_2008_887" x1="0.96" x2="0.08" y1="1.11" y2="0.42">
   <stop stop-color="#0C4E4E"/>
   <stop offset="1" stop-color="#99D420"/>
  </linearGradient>
  <linearGradient id="paint1_linear_2008_887" x1="-0.04" x2="0.77" y1="0.91" y2="0.13">
   <stop stop-color="#0C4E4E"/>
   <stop offset="1" stop-color="#99D420"/>
  </linearGradient>
  <linearGradient id="paint2_linear_2008_887" x1="0.37" x2="0.56" y1="0" y2="0.87">
   <stop stop-color="#0C4E4E"/>
   <stop offset="1" stop-color="#99D420"/>
  </linearGradient>
 </defs>
 <g class="layer">
  <title>Layer 1</title>
  <g id="svg_14" mask="url(#mask0_2008_887)">
   <path d="m43.56,49.79c-6.17,-15.11 -38.36,-17.81 -41.23,-25.92l0,0c-1.48,2.55 -2.33,5.51 -2.33,8.67c0,9.53 7.72,17.25 17.25,17.25l26.31,0z" fill="url(#paint0_linear_2008_887)" id="svg_15"/>
  </g>
  <path d="m2.33,23.87l0,0c1.04,2.94 5.94,5.17 12.06,7.54l6.75,-16.12l-3.89,0c-6.37,0 -11.93,3.45 -14.92,8.58z" fill="#0C4E4E" id="svg_16"/>
  <g id="svg_17" mask="url(#mask1_2008_887)">
   <path d="m14.39,31.41c16.17,2.21 34.6,-24.31 43.06,-22.74c-1.47,-2.56 -3.61,-4.78 -6.34,-6.36c-8.25,-4.76 -18.8,-1.93 -23.57,6.32l-13.15,22.78z" fill="url(#paint1_linear_2008_887)" id="svg_18"/>
  </g>
  <path d="m57.45,8.67c-3.07,-0.57 -7.45,2.56 -12.56,6.67l10.58,13.9l1.95,-3.36c3.18,-5.52 2.97,-12.06 0.03,-17.21z" fill="#0C4E4E" id="svg_19"/>
  <g id="svg_20" mask="url(#mask2_2008_887)">
   <path d="m44.89,15.34l0,0c-10,12.9 3.75,42.12 -1.83,48.66c2.94,0.01 5.93,-0.73 8.67,-2.31c8.25,-4.77 11.08,-15.32 6.31,-23.57l-13.15,-22.78z" fill="url(#paint2_linear_2008_887)" id="svg_21"/>
  </g>
  <path d="m43.06,64l0,0c2.02,-2.37 1.5,-7.73 0.5,-14.21l-17.34,2.21l1.95,3.37c3.18,5.52 8.95,8.61 14.89,8.63z" fill="#0C4E4E" id="svg_22"/>
 </g>
</svg>
